X: 48
T: Ash Grove, The
I: Ash Grove, The	W-36	A	waltz
C: W-36
C: Welsh
M: 3/4
Z: Transcribed to abc by Mary Lou Knack
R: Waltz
Z: Transcribed to abc by Mary Lou Knack
R: waltz
K: A
E2|: "A"A2 c2 ed| c2 A2 A2| "Bm"B2 dc BA| "E"G2 E2 E2|    "A"A2 cB AG| "D"F2 D2 F2| "E"E2 A2 G2|1 "A"A4-AE :|2 "A"A4 cd|]
   "A"e2 cd ef| "E"e2 d2 c2| d2 Bc de| d2 c2 B2|    "A"c2 AB cd| "F#m"c2 B2 A2| "E"G2 e2 "B"^d2| "E"e4 E2|
   "A"A2 c2 ed| c2 A2 A2| "Bm"B2 dc BA| "E"G2 E2 E2|    "A"A2 cB AG| "D"F2 D2 F2| "E"E2 A2 G2| "A"A4|]
% %text 9/1/98   Formerly R-35 For use only by Roaring Jelly members

#include "LeftHeader.h"
% ---------- page 24 ----------

